X:3245
T:Dalen
R:Vals
O:Umeå, Västerbotten
S:Anton Teljebäck
Z: Anton Teljebäck
M:3/4
L:1/8
K:D
"Alt akord, börjar spelas i andra delen och slutar i första:"

 (FE) | "D"(DF) (Ad) cd | "G/D"B2 A2 G2 | "D"F2 D2 C2 | "G/D"B,4 A,2 | "G"B,3 CDF | "A"E2 A3 G | "Bm"F2 G2 A2 | "A"(AB) (AG) FE |
 "D/A"(DF) (Ad) cd | "G/B"B2 A2 G2 | "D"F2 E2 D2 | "A"E4 (FG) | "Bm7"F2 D2 C2 | "G"B,4 G,2 | "A"A,2 B,2 C2 | "D"D3 || 
 uABc | "D"vd3 dcA | "Em7"B3 ABc | "D/#F" d3 dcA | "G"B3 ABc | "D/#F"d3 dcA | "G"B2 c2 B2 | " D/A"A2 F2 D2 | "Asus4"E3 
uABc | "G"vd3 dcA | "Gmaj7"B3 ABc | "Bm" d3 dcA | "Bm"B3 ABc | "G"d3 dcA | "G"B2 c2 B2 | " D/A"A2 F2 D2 | "A"E3 | 


(:musicend:)
(:music:)
